X: 1
T: The Simplified Reel
M: 4/4
L: 1/8
R: reel
K: Amin
AE~E2 c2Bc|AGEG ~=F2GF|EAce Acea|gefd ecdB|
~c2ec ~B2dB|AcBG AGEG|~=F2AF EAce|dBGB ABcB:|
|:~A2a^g a=ged|ecAG ABce|dB~B2 GABd|gfge dBGB|
~c2ec ~B2dB|AcBG AGEG|~=F2AF EAce|dBGB ABcB:|
